X:1
T:Once in Royal David's City
T:Text: Cecil F. Alexander, 1848 Tune: Henry J. Gauntlett, 1849
T:87 87 77 IRBY www.hymnary.org/text/once_in_royal_davids_city_stood_a_lowly
T:Once in Royal David's City
T:This hymn is in the public domain. You may freely use this score for personal and congregational worship. If you reproduce the score, please credit Hymnary.org as the source. 
T:This hymn is in the public domain. You may freely use this score for personal and congregational worship. If you reproduce the score, please credit Hymnary.org as the source. 
Z:This hymn is in the public domain. You may freely use this score for personal and congregational worship. If you reproduce the score, please credit Hymnary.org as the source.
%%score ( 1 2 ) ( 3 4 )
L:1/8
M:4/4
K:F
V:1 treble nm="SOPRANO ALTO" snm="S. A."
V:2 treble 
V:3 bass nm="TENOR BASS" snm="T. B."
V:4 bass 
V:1
"^1""^2""^3""^4""^5" C2 E2 | F3 F FE FG | G2 F2 F2 A2 | c3 A AG FE | F4 | C2 E2 | F3 F FE FG | %7
w: Once in|roy- al Da- * vid's _|ci- ty stood a|low- ly cat- * tle *|shed,|where a|moth- er laid * her *|
w: He came|down to earth _ from _|heav- en who is|God and Lord _ of *|all;|and his|shel- ter was * a *|
w: For he|is our child- * hood's *|pat- tern; day by|day like us * he *|grew;|he was|lit- tle, weak, _ and *|
w: And our|eyes at last * shall _|see him, through his|own re- deem- * ing *|love,|for that|child, so dear * and *|
w: Not in|that poor low- * ly *|sta- ble with the|ox- en stand- * ing *|by|we shall|see him, but * in *|
 G2 F2 F2 A2 | c3 A AG FE | F4 |1 d2 d2 | c3 F B2 B2 | A4 d2 d2 | c3 A AG FE | F4 x4 |] %15
w: ba- by in a|man- ger for * his *|bed:|Mar- y|was that moth- er|mild, Je- sus|Christ, her lit- * tle *|child.|
w: sta- ble and his|cra- dle was * a *|stall:|with the|poor and meek and|low~\-~ly lived on|earth our Sav- * ior *|ho~\-~ly.|
w: help- less; tears and|smiles like us * he *|knew:|and he|feels for all our|sad\-ness and he|shares in all * our *|glad~\-~ness.|
w: gen- tle, is our|Lord in heaven _ a- *|bove:|and he|leads his chil- dren|on to the|place where he * has *|gone.|
w: heav- en, set at|God's right hand _ on *|high:|there his|chil- dren gath- er|round bright like|stars, with glo- * ry *|crowned.|
V:2
 C2 C2 | C3 C C2 C2 | C2 C2 C2 D2 | C3 F D2 C2 | C4 | C2 C2 | C3 C C2 C2 | C2 C2 C2 D2 | %8
 C3 F D2 C2 | C4 |1 F2 F2 | F3 F F2 E2 | F4 F2 F2 | F3 F D2 C2 | C4 x4 |] %15
V:3
 C2 B,2 | A,3 F, A,G, A,B, | B,2 A,2 A,2 F,2 | F,3 C CB, A,G, | A,4 | C2 B,2 | A,3 F, A,G, A,B, | %7
 B,2 A,2 A,2 F,2 | F,3 C CB, A,G, | A,4 |1 B,2 B,2 | A,3 C D2 C2 | C4 B,2 B,2 | A,3 C CB, A,G, | %14
 A,4 x4 |] %15
V:4
 A,2 G,2 | F,3 A,, C,2 C,2 | F,2 F,2 F,2 D,2 | A,,3 A,, B,,2 C,2 | F,4 | A,2 G,2 | %6
 F,3 A,, C,2 C,2 | F,2 F,2 F,2 D,2 | A,,3 A,, B,,2 C,2 | F,4 |1 B,,C, D,E, | F,3 A, G,2 C,2 | %12
 F,4 B,,C, D,E, | F,3 A,, B,,2 C,2 | F,,4 x4 |] %15

